_includes/icons/color-safari.svg

<svg fill="#666" height="50" viewBox="0 0 48 48" width="50" xmlns="http://www.w3.org/2000/svg"><path d="m44 24c0 11.044-8.956 20-20 20s-20-8.956-20-20 8.956-20 20-20 20 8.956 20 20z" fill="#cfd8dc"/><path d="m41 24c0 9.391-7.609 17-17 17s-17-7.609-17-17 7.609-17 17-17 17 7.609 17 17z" fill="#448aff"/><path d="m21.898 21.898 4.203 4.203 9.199-13.402z" fill="#ff3d00"/><path d="m24 24 11.301-11.301-9.199 13.402z" fill="#bf360c"/><path d="m21.898 21.898-9.199 13.402 13.402-9.199z" fill="#fff"/><path d="m24 24-11.301 11.301 13.402-9.199z" fill="#bdbdbd"/><path d="m17.102 10.699c.598-.301 1.199-.598 1.797-.801l1.203 2.703-1.801.797zm18.898 14.301h2.898c0-.301.102-.699.102-1s0-.699-.102-1h-2.898zm-23.301-10.898 2.102 2.098 1.398-1.398-2.098-2.102c-.499.499-.902.902-1.402 1.402zm12.301-5c-.301-.102-.699-.102-1-.102s-.699 0-1 .102v2.898h2zm5.398 1.398c-.598-.301-1.199-.5-1.898-.699l-1.102 2.801 1.902.699zm-17.898 10 .699-1.898-2.699-1.102c-.301.602-.5 1.199-.699 1.898zm-.5 2.5h-2.898c-.102.301-.102.699-.102 1s0 .699.102 1h2.898zm23.5 4.5-.699 1.898 2.699 1.102c.301-.602.5-1.199.699-1.898zm2.602-8.602c-.203-.598-.5-1.199-.801-1.797l-2.699 1.199.797 1.801zm-2.801 15-2.102-2.098-1.398 1.398 2.098 2.102zm-21.903-4.199-.797-1.801-2.703 1.203c.203.598.5 1.199.801 1.797zm16.301 4.903-1.801.797 1.203 2.703c.598-.203 1.199-.5 1.797-.801zm-9.199.898-1.898-.699-1.102 2.699c.602.301 1.199.5 1.898.699zm4.5 3.398v-2.898h-2v2.898c.301 0 .699.102 1 .102s.699 0 1-.102z" fill="#bbdefb"/></svg>

<svg xmlns="http://www.w3.org/2000/svg" viewBox="0 0 48 48" width="50" height="50" fill="#666"><path d="M44,24c0,11.044-8.956,20-20,20S4,35.044,4,24S12.956,4,24,4S44,12.956,44,24z" fill="#cfd8dc"/><path d="M41,24c0,9.391-7.609,17-17,17S7,33.391,7,24S14.609,7,24,7S41,14.609,41,24z" fill="#448aff"/><path d="M21.898,21.898l4.203,4.203l9.199-13.402L21.898,21.898z" fill="#ff3d00"/><path d="M24,24l11.301-11.301l-9.199,13.402L24,24z" fill="#bf360c"/><path d="M21.898,21.898l-9.199,13.402l13.402-9.199L21.898,21.898z" fill="#fff"/><path d="M24,24L12.699,35.301l13.402-9.199L24,24z" fill="#bdbdbd"/><path d="M17.102,10.699c0.598-0.301,1.199-0.598,1.797-0.801l1.203,2.703l-1.801,0.797L17.102,10.699z M36,25h2.898c0-0.301,0.102-0.699,0.102-1s0-0.699-0.102-1H36V25z M12.699,14.102l2.102,2.098l1.398-1.398l-2.098-2.102 C13.602,13.199,13.199,13.602,12.699,14.102z M25,9.102C24.699,9,24.301,9,24,9s-0.699,0-1,0.102V12h2V9.102z M30.398,10.5 c-0.598-0.301-1.199-0.5-1.898-0.699l-1.102,2.801l1.902,0.699L30.398,10.5z M12.5,20.5l0.699-1.898L10.5,17.5 c-0.301,0.602-0.5,1.199-0.699,1.898L12.5,20.5z M12,23H9.102C9,23.301,9,23.699,9,24s0,0.699,0.102,1H12V23z M35.5,27.5 l-0.699,1.898L37.5,30.5c0.301-0.602,0.5-1.199,0.699-1.898L35.5,27.5z M38.102,18.898c-0.203-0.598-0.5-1.199-0.801-1.797 l-2.699,1.199l0.797,1.801L38.102,18.898z M35.301,33.898l-2.102-2.098l-1.398,1.398l2.098,2.102 C34.398,34.801,34.801,34.398,35.301,33.898z M13.398,29.699l-0.797-1.801l-2.703,1.203c0.203,0.598,0.5,1.199,0.801,1.797 L13.398,29.699z M29.699,34.602l-1.801,0.797l1.203,2.703c0.598-0.203,1.199-0.5,1.797-0.801L29.699,34.602z M20.5,35.5 l-1.898-0.699L17.5,37.5c0.602,0.301,1.199,0.5,1.898,0.699L20.5,35.5z M25,38.898V36h-2v2.898c0.301,0,0.699,0.102,1,0.102 S24.699,39,25,38.898z" fill="#bbdefb"/></svg>
